startshape Circles

shape Circles
{
	CIRCLE [ x -0.25 y 0.0 s 1.0 sat 1 b 1]
  CIRCLE [ x -0.25 y 0.0 s 0.9 b 1]
  CIRCLE [ x 0.25 y 0.0 s 1.0 sat 4 b 2]
  CIRCLE [ x 0.25 y 0.0 s 0.9 b 1]
  CIRCLE [ x -0.5 y -0.5 s 1.0 sat 4 b 2]
  CIRCLE [ x -0.5 y -0.5 s 0.9 b 1]
  CIRCLE [ x 0.0 y -0.5 s 1.0 sat 4 b 2]
  CIRCLE [ x 0.0 y -0.5 s 0.9 b 1]
	CIRCLE [ x 0.5 y -0.5 s 1.0 sat 4 b 2]
  CIRCLE [ x 0.5 y -0.5 s 0.9 b 1]
  CIRCLE [ x 0.0 y -0.25 s 1.3 b 1]
}

